styles/4/Numix-Circle/48x48/apps/file-manager.svg

<?xml version="1.0" encoding="UTF-8" standalone="no"?>
<svg
   xmlns:dc="http://purl.org/dc/elements/1.1/"
   xmlns:cc="http://creativecommons.org/ns#"
   xmlns:rdf="http://www.w3.org/1999/02/22-rdf-syntax-ns#"
   xmlns:svg="http://www.w3.org/2000/svg"
   xmlns="http://www.w3.org/2000/svg"
   xmlns:xlink="http://www.w3.org/1999/xlink"
   xmlns:sodipodi="http://sodipodi.sourceforge.net/DTD/sodipodi-0.dtd"
   xmlns:inkscape="http://www.inkscape.org/namespaces/inkscape"
   width="48"
   viewBox="0 0 13.546667 13.546667"
   height="48"
   id="svg2"
   version="1.1"
   inkscape:version="0.91 r"
   sodipodi:docname="file-manager.svg">
  <metadata
     id="metadata331">
    <rdf:RDF>
      <cc:Work
         rdf:about="">
        <dc:format>image/svg+xml</dc:format>
        <dc:type
           rdf:resource="http://purl.org/dc/dcmitype/StillImage" />
        <dc:title />
      </cc:Work>
    </rdf:RDF>
  </metadata>
  <sodipodi:namedview
     pagecolor="#ffffff"
     bordercolor="#666666"
     borderopacity="1"
     objecttolerance="10"
     gridtolerance="10"
     guidetolerance="10"
     inkscape:pageopacity="0"
     inkscape:pageshadow="2"
     inkscape:window-width="1280"
     inkscape:window-height="998"
     id="namedview329"
     showgrid="true"
     inkscape:zoom="4"
     inkscape:cx="-16.105142"
     inkscape:cy="39.134266"
     inkscape:window-x="0"
     inkscape:window-y="0"
     inkscape:window-maximized="1"
     inkscape:current-layer="layer3"
     showguides="true"
     inkscape:guide-bbox="true">
    <inkscape:grid
       type="xygrid"
       id="grid3308" />
  </sodipodi:namedview>
  <defs
     id="defs4">
    <linearGradient
       id="linearGradient4140">
      <stop
         style="stop-color:#666699;stop-opacity:1;"
         offset="0"
         id="stop4143" />
      <stop
         style="stop-color:#7373a1;stop-opacity:1;"
         offset="1"
         id="stop4145" />
    </linearGradient>
    <linearGradient
       inkscape:collect="always"
       xlink:href="#linearGradient4140"
       id="linearGradient4147"
       x1="-27"
       y1="13"
       x2="-24"
       y2="13"
       gradientUnits="userSpaceOnUse" />
  </defs>
  <g
     inkscape:groupmode="layer"
     id="layer1"
     inkscape:label="Shadow"
     sodipodi:insensitive="true">
    <path
       style="opacity:0.05;fill:#000000;fill-opacity:1;stroke:none"
       d="M 25,2 C 12.297451,2 2,12.297451 2,25 2,31.367153 4.6007106,37.116628 8.78125,41.28125 12.865755,44.99361 18.29568,47.25 24.25,47.25 c 12.702549,0 23,-10.297451 23,-23 0,-5.95432 -2.25639,-11.384245 -5.96875,-15.46875 C 37.116628,4.6007105 31.367153,2 25,2 z M 41.28125,8.78125 C 45.135604,12.894061 47.5,18.418655 47.5,24.5 c 0,12.702549 -10.297451,23 -23,23 C 18.418655,47.5 12.894061,45.135604 8.78125,41.28125 12.940939,45.4251 18.664604,48 25,48 37.702549,48 48,37.702549 48,25 48,18.664604 45.4251,12.940939 41.28125,8.78125 z"
       transform="scale(0.28222223,0.28222223)"
       id="path3978"
       inkscape:connector-curvature="0" />
    <path
       style="opacity:0.1;fill:#000000;fill-opacity:1;stroke:none"
       d="M 41.28125,8.78125 C 44.99361,12.865755 47.25,18.29568 47.25,24.25 c 0,12.702549 -10.297451,23 -23,23 -5.95432,0 -11.384245,-2.25639 -15.46875,-5.96875 C 12.894061,45.135604 18.418655,47.5 24.5,47.5 c 12.702549,0 23,-10.297451 23,-23 0,-6.081345 -2.364396,-11.605939 -6.21875,-15.71875 z"
       transform="scale(0.28222223,0.28222223)"
       id="path3976"
       inkscape:connector-curvature="0" />
    <path
       transform="matrix(4.3274074,0,0,3.2455556,117.19278,-35.348334)"
       d="m -24,13 a 1.5,2 0 1 1 -3,0 1.5,2 0 1 1 3,0 z"
       sodipodi:ry="2"
       sodipodi:rx="1.5"
       sodipodi:cy="13"
       sodipodi:cx="-25.5"
       id="path3952"
       style="opacity:0.2;fill:#000000;fill-opacity:1;stroke:none"
       sodipodi:type="arc" />
  </g>
  <g
     inkscape:groupmode="layer"
     id="layer2"
     inkscape:label="Base">
    <path
       sodipodi:type="arc"
       style="fill:url(#linearGradient4147);fill-opacity:1;stroke:none"
       id="path3942"
       sodipodi:cx="-25.5"
       sodipodi:cy="13"
       sodipodi:rx="1.5"
       sodipodi:ry="2"
       d="m -24,13 a 1.5,2 0 1 1 -3,0 1.5,2 0 1 1 3,0 z"
       transform="matrix(0,-4.3274075,3.2455556,0,-35.429918,-103.60974)" />
    <path
       style="opacity:0.1;fill:#000000;fill-opacity:1;stroke:none"
       d="M 40.03125 7.53125 C 43.74361 11.615755 46 17.04568 46 23 C 46 35.702549 35.702549 46 23 46 C 17.04568 46 11.615755 43.74361 7.53125 40.03125 C 11.709416 44.322508 17.537578 47 24 47 C 36.702549 47 47 36.702549 47 24 C 47 17.537578 44.322508 11.709416 40.03125 7.53125 z "
       transform="scale(0.28222223,0.28222223)"
       id="path4027" />
  </g>
  <g
     inkscape:groupmode="layer"
     id="layer3"
     inkscape:label="Symbol">
    <path
       style="fill:#000000;fill-opacity:0.10196079;stroke:none"
       d="M 16 14 C 15 14 15 15 15 16 L 15 16.25 L 15 17 L 15 19 C 14.8061 19 14.614547 19.011488 14.4375 19.0625 C 14.381884 19.077804 14.333427 19.105181 14.28125 19.125 C 14.225032 19.146454 14.178623 19.192513 14.125 19.21875 C 14.062794 19.249969 13.99481 19.274724 13.9375 19.3125 C 13.809129 19.392794 13.700243 19.487257 13.59375 19.59375 C 13.471139 19.716361 13.368698 19.848821 13.28125 20 C 13.11087 20.294551 13 20.633901 13 21 L 13 33 C 13 34.108 13.892 35 15 35 L 35 35 C 36.108 35 37 34.108 37 33 L 37 21 C 37 20.633901 36.88913 20.294551 36.71875 20 C 36.631302 19.848821 36.528861 19.716361 36.40625 19.59375 C 36.300866 19.482996 36.188282 19.395323 36.0625 19.3125 C 36.004213 19.276042 35.93715 19.249159 35.875 19.21875 C 35.822431 19.192392 35.775077 19.146377 35.71875 19.125 C 35.666992 19.105248 35.616246 19.077986 35.5625 19.0625 C 35.391167 19.015383 35.207646 19 35 19 L 35 18 C 35 17 34 16 33 16 L 21 16 C 21 15 21 14 20 14 L 16 14 z "
       transform="scale(0.28222223,0.28222223)"
       id="path5050" />
    <path
       inkscape:connector-curvature="0"
       id="path2998"
       d="m 4.2333328,4.2333335 4.7977781,0 c 0.2822222,0 0.5644442,0.2822224 0.5644442,0.5644445 l 0,1.1288889 c 0,0.3127023 -0.125871,0.5644444 -0.282222,0.5644444 l -5.0800003,0 c -0.1563511,0 -0.2822222,-0.2517421 -0.2822222,-0.5644444 l 0,-1.6933334 z"
       style="fill:#e9a439;fill-opacity:1;stroke:none"
       sodipodi:nodetypes="csssssscc" />
    <path
       style="opacity:0.02999998;fill:#000000;fill-opacity:1;stroke:none"
       d="m 3.9511106,4.797778 0,1.4111112 5.6444445,0 0,-1.4111112 z"
       id="path3807"
       inkscape:connector-curvature="0" />
    <rect
       style="fill:#f5c14e;fill-opacity:1;stroke:none"
       id="rect2990"
       width="6.7733331"
       height="4.5155563"
       x="3.3866668"
       y="5.0799999"
       rx="0.56444448"
       ry="0.56444448" />
    <path
       sodipodi:nodetypes="csssscc"
       inkscape:connector-curvature="0"
       id="path3000"
       d="m 3.9511106,4.5155559 0,-0.2822224 c 0,-0.2822222 0,-0.5644444 0.2822222,-0.5644444 l 1.128889,0 c 0.2822222,0 0.2822222,0.2822222 0.2822222,0.5644444 l 0,0.2822224 z"
       style="fill:#e9a439;fill-opacity:1;stroke:none" />
    <path
       style="opacity:0.05;fill:#000000;fill-opacity:1;stroke:none"
       d="m 5.644444,4.2333335 0,0.2822224 0.2822222,0 3.1044447,0 c 0.2822222,0 0.5644442,0.2822221 0.5644442,0.5644443 l 0,-0.2822222 c 0,-0.2822221 -0.282222,-0.5644445 -0.5644442,-0.5644445 l -3.1044447,0 z"
       id="path3002"
       inkscape:connector-curvature="0"
       sodipodi:nodetypes="cccscsscc" />
    <path
       style="opacity:0.05;fill:#000000;fill-opacity:1;stroke:none"
       d="m 4.2333328,3.6688891 c -0.2822222,0 -0.2822222,0.2822222 -0.2822222,0.5644444 l 0,0.070556 C 3.9643383,4.1054587 4.0216661,3.9511113 4.2333328,3.9511113 l 1.128889,0 c 0.2116667,0 0.268993,0.1543474 0.2822222,0.3527779 l 0,-0.070556 c 0,-0.2822223 0,-0.5644445 -0.2822222,-0.5644445 l -1.128889,0 z"
       id="path3780"
       inkscape:connector-curvature="0" />
    <path
       style="opacity:0.1;fill:#ffffff;fill-opacity:1;stroke:none"
       d="m 3.9511112,5.0800001 c -0.234409,0 -0.3800578,0.1137638 -0.4891507,0.2822223 l 6.6230745,0 C 9.9759437,5.1937639 9.8299649,5.0800001 9.5955558,5.0800001 z"
       id="rect2991"
       inkscape:connector-curvature="0"
       sodipodi:nodetypes="sccss" />
  </g>
</svg>

<svg xmlns="http://www.w3.org/2000/svg" viewBox="0 0 48 48">
 <defs>
  <linearGradient id="linearGradient3764" x1="1" x2="47" gradientUnits="userSpaceOnUse" gradientTransform="matrix(0,-1,1,0,-1.5e-6,47.999998)">
   <stop style="stop-color:#7568a0;stop-opacity:1"/>
   <stop offset="1" style="stop-color:#8074a8;stop-opacity:1"/>
  </linearGradient>
 </defs>
 <g>
  <path d="m 36.31 5 c 5.859 4.062 9.688 10.831 9.688 18.5 c 0 12.426 -10.07 22.5 -22.5 22.5 c -7.669 0 -14.438 -3.828 -18.5 -9.688 c 1.037 1.822 2.306 3.499 3.781 4.969 c 4.085 3.712 9.514 5.969 15.469 5.969 c 12.703 0 23 -10.298 23 -23 c 0 -5.954 -2.256 -11.384 -5.969 -15.469 c -1.469 -1.475 -3.147 -2.744 -4.969 -3.781 z m 4.969 3.781 c 3.854 4.113 6.219 9.637 6.219 15.719 c 0 12.703 -10.297 23 -23 23 c -6.081 0 -11.606 -2.364 -15.719 -6.219 c 4.16 4.144 9.883 6.719 16.219 6.719 c 12.703 0 23 -10.298 23 -23 c 0 -6.335 -2.575 -12.06 -6.719 -16.219 z" style="opacity:0.05"/>
  <path d="m 41.28 8.781 c 3.712 4.085 5.969 9.514 5.969 15.469 c 0 12.703 -10.297 23 -23 23 c -5.954 0 -11.384 -2.256 -15.469 -5.969 c 4.113 3.854 9.637 6.219 15.719 6.219 c 12.703 0 23 -10.298 23 -23 c 0 -6.081 -2.364 -11.606 -6.219 -15.719 z" style="opacity:0.1"/>
  <path d="m 31.25 2.375 c 8.615 3.154 14.75 11.417 14.75 21.13 c 0 12.426 -10.07 22.5 -22.5 22.5 c -9.708 0 -17.971 -6.135 -21.12 -14.75 a 23 23 0 0 0 44.875 -7 a 23 23 0 0 0 -16 -21.875 z" style="opacity:0.2"/>
 </g>
 <g>
  <path d="m 24 1 c 12.703 0 23 10.297 23 23 c 0 12.703 -10.297 23 -23 23 -12.703 0 -23 -10.297 -23 -23 0 -12.703 10.297 -23 23 -23 z" style="fill:url(#linearGradient3764);fill-opacity:1"/>
 </g>
 <g>
  <path d="m 40.03 7.531 c 3.712 4.084 5.969 9.514 5.969 15.469 0 12.703 -10.297 23 -23 23 c -5.954 0 -11.384 -2.256 -15.469 -5.969 4.178 4.291 10.01 6.969 16.469 6.969 c 12.703 0 23 -10.298 23 -23 0 -6.462 -2.677 -12.291 -6.969 -16.469 z" style="opacity:0.1"/>
 </g>
 <g transform="matrix(3.543307,0,0,3.543307,-0.00118111,-0.00100011)">
  <path d="m 16,14 c -1,0 -1,1 -1,2 l 0,0.25 0,0.75 0,2 c -0.194,0 -0.385,0.011 -0.563,0.063 -0.056,0.015 -0.104,0.043 -0.156,0.063 -0.056,0.021 -0.103,0.068 -0.156,0.094 -0.062,0.031 -0.13,0.056 -0.188,0.094 -0.128,0.08 -0.237,0.175 -0.344,0.281 -0.123,0.123 -0.225,0.255 -0.313,0.406 -0.17,0.295 -0.281,0.634 -0.281,1 l 0,12 c 0,1.108 0.892,2 2,2 l 20,0 c 1.108,0 2,-0.892 2,-2 l 0,-12 c 0,-0.366 -0.111,-0.705 -0.281,-1 C 36.631,19.85 36.528,19.717 36.405,19.595 36.3,19.484 36.187,19.397 36.061,19.314 36.003,19.278 35.936,19.251 35.873,19.22 35.82,19.194 35.773,19.148 35.717,19.126 35.665,19.106 35.614,19.079 35.561,19.063 35.39,19.016 35.206,19 34.998,19 l 0,-1 c 0,-1 -1,-2 -2,-2 l -12,0 c 0,-1 0,-2 -1,-2 l -4,0 z" transform="scale(0.28222223,0.28222223)" style="fill:#000;fill-opacity:0.102;stroke:none"/>
  <path d="m 4.233,4.233 4.798,0 c 0.282,0 0.564,0.282 0.564,0.564 l 0,1.129 c 0,0.313 -0.126,0.564 -0.282,0.564 l -5.08,0 C 4.077,6.49 3.951,6.238 3.951,5.926 l 0,-1.693 z" style="fill:#e9a439;fill-opacity:1;stroke:none"/>
  <path d="m 3.951 4.798 0 1.411 5.644 0 0 -1.411 z" style="fill:#000;opacity:0.03;fill-opacity:1;stroke:none"/>
  <rect width="6.773" height="4.516" x="3.387" y="5.08" rx="0.564" style="fill:#f5c14e;fill-opacity:1;stroke:none"/>
  <path d="m 3.951 4.516 0 -0.282 c 0 -0.282 0 -0.564 0.282 -0.564 l 1.129 0 c 0.282 0 0.282 0.282 0.282 0.564 l 0 0.282 z" style="fill:#e9a439;fill-opacity:1;stroke:none"/>
  <path d="m 5.644,4.233 0,0.282 0.282,0 3.104,0 c 0.282,0 0.564,0.282 0.564,0.564 l 0,-0.282 C 9.594,4.515 9.312,4.233 9.03,4.233 l -3.104,0 z" style="fill:#000;opacity:0.05;fill-opacity:1;stroke:none"/>
  <path d="m 4.233,3.669 c -0.282,0 -0.282,0.282 -0.282,0.564 l 0,0.071 C 3.964,4.106 4.022,3.951 4.233,3.951 l 1.129,0 c 0.212,0 0.269,0.154 0.282,0.353 l 0,-0.071 c 0,-0.282 0,-0.564 -0.282,-0.564 l -1.129,0 z" style="fill:#000;opacity:0.05;fill-opacity:1;stroke:none"/>
  <path d="m 3.951,5.08 c -0.234,0 -0.38,0.114 -0.489,0.282 l 6.623,0 C 9.976,5.194 9.83,5.08 9.596,5.08 Z" style="fill:#fff;opacity:0.1;fill-opacity:1;stroke:none"/>
 </g>
</svg>
